!!!COM: Anonymous
!!!OTL@@LAT: Resonet in laudibus
!!!TXO: Latin
!!!ODT: 
!!!GTL: Hymnbook L 1642(a)
!!!ARL: Biblioteka Diecezjalna w Sandomierzu 
!!!voices:	4
**kern	**text	**kern	**text	**kern	**text	**kern	**text
*staff4	*staff4	*staff3	*staff3	*staff2	*staff2	*staff1	*staff1
*I"Basso	*	*I"Canto III	*	*I"Canto II	*	*I"Canto I	*
=1-	=1-	=1-	=1-	=1-	=1-	=1-	=1-
*clefF4	*	*clefG2	*	*clefG2	*	*clefG2	*
*k[b-]	*	*k[b-]	*	*k[b-]	*	*k[b-]	*
*M3/1	*	*M3/1	*	*M3/1	*	*M3/1	*
0.r	.	0.r	.	0.r	.	0cc	Re-
.	.	.	.	.	.	1a	-so-
=2	=2	=2	=2	=2	=2	=2	=2
0.r	.	0.r	.	0.r	.	0f	-net
.	.	.	.	.	.	1a	in
=3	=3	=3	=3	=3	=3	=3	=3
0.r	.	0.r	.	0.r	.	0cc	lau-
.	.	.	.	.	.	1dd	-di-
=4	=4	=4	=4	=4	=4	=4	=4
0.r	.	0.r	.	0.r	.	0.cc	-bus
=5	=5	=5	=5	=5	=5	=5	=5
0FF	Cum	0f	Cum	0a	Cum	0cc	Cum
1AA	iu-	1e	iu-	1cc	iu-	1a	iu-
=6	=6	=6	=6	=6	=6	=6	=6
0BB-	-cun-	0d	-cun-	0dd	-cun-	0f	-cun-
1FF	-dis	1f	-dis	1cc	-dis	1a	-dis
=7	=7	=7	=7	=7	=7	=7	=7
0FF	lau-	0f	lau-	0cc	lau-	0cc	lau-
1GG	-di-	1d	-di-	1bn	-di-	1dd	-di-
=8	=8	=8	=8	=8	=8	=8	=8
0.C	-bus	0.e	-bus	0.g	-bus	0.cc	-bus
=9	=9	=9	=9	=9	=9	=9	=9
0FF	Si-	0f	Si-	0a	Si-	0cc	Si-
1GG	-on	1d	-on	1g	-on	1b-	-on
=10	=10	=10	=10	=10	=10	=10	=10
0AA	cum	0e	cum	0cc	cum	0a	cum
1FF	fi-	1f	fi-	1a	fi-	1cc	fi-
=11	=11	=11	=11	=11	=11	=11	=11
0BB-	-de-	0d	-de-	0f	-de-	0b-	-de-
1FF	-li-	1f	-li-	1cc	-li-	1a	-li-
=12	=12	=12	=12	=12	=12	=12	=12
0C	-bus	0e	-bus	0cc	-bus	0g	-bus
1C	Ap-	1f	Ap-	1cc	Ap-	1a	Ap-
=13	=13	=13	=13	=13	=13	=13	=13
0AA	-pa-	0e	-pa-	0a	-pa-	0cc	-pa-
1FF	-ru-	1f	-ru-	1cc	-ru-	1a	-ru-
=14	=14	=14	=14	=14	=14	=14	=14
0FF	-it	0f	-it	0a	-it	0f	-it
1F	quem	1f	quem	1cc	quem	1a	quem
=15	=15	=15	=15	=15	=15	=15	=15
0E	ge-	0e	ge-	0cc	ge-	0g	ge-
1FF	-nu-	1f	-nu-	1a	-nu-	1f	-nu-
=16	=16	=16	=16	=16	=16	=16	=16
0C	-it	0e	-it	0cc	-it	0g	-it
1AA	Ma-	1e	Ma-	1cc	Ma-	1a	Ma-
=17	=17	=17	=17	=17	=17	=17	=17
0.BB-	-ri-	0f	-ri-	0.dd	-ri-	0.f	-ri-
.	.	1b-	.	.	.	.	.
=18	=18	=18	=18	=18	=18	=18	=18
0.FF	-a	0.a	-a	0.cc	-a	0.f	-a
=19||	=19||	=19||	=19||	=19||	=19||	=19||	=19||
0F	Sunt	0f	Sunt	0a	Sunt	0f	Sunt
1C	im-	1e	im-	1cc	im-	1g	im-
=20	=20	=20	=20	=20	=20	=20	=20
0FF	-ple-	0f	-ple-	0cc	-ple-	0a	-ple-
1BB-	-ta	1f	-ta	1dd	-ta	1b-	-ta
=21	=21	=21	=21	=21	=21	=21	=21
0FF	quae	0f	quae	0cc	quae	0a	quae
1C	pre-	1e	pre-	1cc	pre-	1g	pre-
=22	=22	=22	=22	=22	=22	=22	=22
0C	-di-	0e	-di-	0cc	-di-	0g	-di-
1FF	-xit	1f	-xit	1a	-xit	1a	-xit
=23	=23	=23	=23	=23	=23	=23	=23
0BB-	Ga-	1f	Ga-	0dd	Ga-	0f	Ga-
.	.	1b-	.	.	.	.	.
1BB-	-bri-	1b-	-bri-	1dd	-bri-	1f	-bri-
=24	=24	=24	=24	=24	=24	=24	=24
0.FF	-el	0.a	-el	0.cc	-el	0.f	-el
=25||	=25||	=25||	=25||	=25||	=25||	=25||	=25||
0.FF	E-	0.f	E-	0.a	E-	0.cc	E-
=26	=26	=26	=26	=26	=26	=26	=26
0.FF	-ia	0.f	-ia	0.a	-ia	0.a	-ia
=27	=27	=27	=27	=27	=27	=27	=27
0.AA	e-	0.e	e-	0.a	e-	0.cc	e-
=28	=28	=28	=28	=28	=28	=28	=28
0.FF	-ia	0.f	-ia	0.a	-ia	0.a	-ia
=29	=29	=29	=29	=29	=29	=29	=29
0F	Vir-	0f	Vir-	0a	Vir-	0f	Vir-
1C	-go	1e	-go	1cc	-go	1g	-go
=30	=30	=30	=30	=30	=30	=30	=30
0AA	De-	0e	De-	0cc	De-	0a	De-
1GG	-um	1d	-um	1dd	-um	1b-	-um
=31	=31	=31	=31	=31	=31	=31	=31
0FF	ge-	0f	ge-	0cc	ge-	0a	ge-
1C	-nu-	1e	-nu-	1cc	-nu-	1g	-nu-
=32	=32	=32	=32	=32	=32	=32	=32
0.FF	-it	0.f	-it	0.a	-it	0.a	-it
=33	=33	=33	=33	=33	=33	=33	=33
0F	quod	0f	quod	0a	quod	0f	quod
1C	di-	1e	di-	1cc	di-	1g	di-
=34	=34	=34	=34	=34	=34	=34	=34
0AA	-vi-	0e	-vi-	0cc	-vi-	0a	-vi-
1GG	-na	1g	-na	1dd	-na	1b-	-na
=35	=35	=35	=35	=35	=35	=35	=35
0FF	vo-	0a	vo-	0a	vo-	0cc	vo-
1GG	-lu-	1g	-lu-	1b-	-lu-	1b-	-lu-
=36	=36	=36	=36	=36	=36	=36	=36
0FF	-it	0a	-it	0cc	-it	0a	-it
1BB-	cle-	1f	cle-	1dd	cle-	1b-	cle-
=37	=37	=37	=37	=37	=37	=37	=37
0C	-men-	1f	-men-	0cc	-men-	0g	-men-
.	.	2e/	.	.	.	.	.
.	.	2d/	.	.	.	.	.
1C	-ti-	1e	-ti-	1cc	-ti-	1g	-ti-
=38	=38	=38	=38	=38	=38	=38	=38
0.FF	-a	0.f	-a	0.a	-a	0.f	-a
=39||	=39||	=39||	=39||	=39||	=39||	=39||	=39||
0FF	Ho-	0f	Ho-	0a	Ho-	0cc	Ho-
1FF	-di-	1f	-di-	1a	-di-	1cc	-di-
=40	=40	=40	=40	=40	=40	=40	=40
0FF	-e	0f	-e	0a	-e	0cc	-e
1BB-	ap-	1f	ap-	1b-	ap-	1dd	ap-
=41	=41	=41	=41	=41	=41	=41	=41
0BB-	-pa-	0b-	-pa-	0dd	-pa-	0ff	-pa-
1C	-ru-	1g	-ru-	1cc	-ru-	1ee	-ru-
=42	=42	=42	=42	=42	=42	=42	=42
0GG	-it	0g	-it	0bn	-it	0dd	-it
1C	ap-	1g	ap-	1cc	ap-	1ee	ap-
=43	=43	=43	=43	=43	=43	=43	=43
0BB-	-pa-	0b-	-pa-	0dd	-pa-	0ff	-pa-
1C	-ru-	1g	-ru-	1cc	-ru-	1ee	-ru-
=44	=44	=44	=44	=44	=44	=44	=44
0GG	-it	0g	-it	0bni	-it	0dd	-it
1AA	in	1e	in	1cc	in	1cc	in
=45	=45	=45	=45	=45	=45	=45	=45
0FF	I-	0f	I-	0a	I-	0a	I-
1GG	-sra-	1d	-sra-	1g	-sra-	1bni	-sra-
=46	=46	=46	=46	=46	=46	=46	=46
0.C	-el	0.e	-el	0.g	-el	0.cc	-el
=47	=47	=47	=47	=47	=47	=47	=47
0F	Ex	0f	Ex	0a	Ex	0f	Ex
1C	Ma-	1e	Ma-	1cc	Ma-	1g	Ma-
=48	=48	=48	=48	=48	=48	=48	=48
0FF	-ri-	0f	-ri-	0cc	-ri-	0a	-ri-
1GG	-a	1d	-a	1b-	-a	1b-	-a
=49	=49	=49	=49	=49	=49	=49	=49
0AA	Vir-	0e	Vir-	0a	Vir-	0cc	Vir-
1BB-	-gi-	1d	-gi-	1f	-gi-	1b-	-gi-
=50	=50	=50	=50	=50	=50	=50	=50
0FF	-ne	0f	-ne	0cc	-ne	0a	-ne
1BB-	Em-	1f	Em-	1dd	Em-	1b-	Em-
=51	=51	=51	=51	=51	=51	=51	=51
0C	-ma-	0e	-ma-	0cc	-ma-	0g	-ma-
1C	-nu-	1e	-nu-	1cc	-nu-	1g	-nu-
=52	=52	=52	=52	=52	=52	=52	=52
0.FF	-el	0.f	-el	0.a	-el	0.f	-el
=53	=53	=53	=53	=53	=53	=53	=53
0FF	Ma-	0f	Ma-	0a	Ma-	0cc	Ma-
1AA	-gnum	1e	-gnum	1cc	-gnum	1a	-gnum
=54	=54	=54	=54	=54	=54	=54	=54
0BB-	no-	0d	no-	0dd	no-	0f	no-
1FF	-men	1f	-men	1cc	-men	1a	-men
=55	=55	=55	=55	=55	=55	=55	=55
0C	Do-	0g	Do-	0cc	Do-	0cc	Do-
1GG	-mi-	1g	-mi-	1bni	-mi-	1dd	-mi-
=56	=56	=56	=56	=56	=56	=56	=56
0C	-ni	0e	-ni	0g	-ni	0cc	-ni
1FF	Em-	1f	Em-	1a	Em-	1a	Em-
=57	=57	=57	=57	=57	=57	=57	=57
0AA	-ma-	0e	-ma-	0cc	-ma-	0cc	-ma-
1GG	-nu-	1g	-nu-	1bni	-nu-	1dd	-nu-
=58	=58	=58	=58	=58	=58	=58	=58
0.C	-el	0.g	-el	0.cc	-el	0.cc	-el
=59	=59	=59	=59	=59	=59	=59	=59
0F	Quod	0f	Quod	0a	Quod	0f	Quod
1C	an-	1e	an-	1cc	an-	1g	an-
=60	=60	=60	=60	=60	=60	=60	=60
0AA	-nun-	0f	-nun-	0cc	-nun-	0a	-nun-
1GG	-ti-	1g	-ti-	1dd	-ti-	1b-	-ti-
=61	=61	=61	=61	=61	=61	=61	=61
0FF	-a-	0a	-a-	0a	-a-	0cc	-a-
1GG	-tum	1g	-tum	1b-	-tum	1b-	-tum
=62	=62	=62	=62	=62	=62	=62	=62
0FF	est	0a	est	0cc	est	0a	est
1BB-	per	1f	per	1dd	per	1b-	per
=63	=63	=63	=63	=63	=63	=63	=63
0C	Ga-	1f	Ga-	0cc	Ga-	0g	Ga-
.	.	2e/	.	.	.	.	.
.	.	2d/	.	.	.	.	.
1C	-bri-	1e	-bri-	1cc	-bri-	1g	-bri-
=64	=64	=64	=64	=64	=64	=64	=64
0.FF	-el.	0.f	-el.	0.a	-el.	0.f	-el.
=65||	=65||	=65||	=65||	=65||	=65||	=65||	=65||
0.FF	E-	0.f	E-	0.a	E-	0.cc	E-
=66	=66	=66	=66	=66	=66	=66	=66
0.FF	-ia	0.f	-ia	0.a	-ia	0.a	-ia
=67	=67	=67	=67	=67	=67	=67	=67
0.AA	e-	0.e	e-	0.a	e-	0.cc	e-
=68	=68	=68	=68	=68	=68	=68	=68
0.FF	-ia	0.f	-ia	0.a	-ia	0.a	-ia
=69	=69	=69	=69	=69	=69	=69	=69
0F	Vir-	0f	Vir-	0a	Vir-	0f	Vir-
1C	-go	1e	-go	1cc	-go	1g	-go
=70	=70	=70	=70	=70	=70	=70	=70
0AA	De-	0e	De-	0cc	De-	0a	De-
1GG	-um	1d	-um	1dd	-um	1b-	-um
=71	=71	=71	=71	=71	=71	=71	=71
0FF	ge-	0f	ge-	0cc	ge-	0a	ge-
1C	-nu-	1e	-nu-	1cc	-nu-	1g	-nu-
=72	=72	=72	=72	=72	=72	=72	=72
0.FF	-it	0.f	-it	0.a	-it	0.a	-it
=73	=73	=73	=73	=73	=73	=73	=73
0F	quod	0f	quod	0a	quod	0f	quod
1C	di-	1e	di-	1cc	di-	1g	di-
=74	=74	=74	=74	=74	=74	=74	=74
0AA	-vi-	0e	-vi-	0cc	-vi-	0a	-vi-
1GG	-na	1g	-na	1dd	-na	1b-	-na
=75	=75	=75	=75	=75	=75	=75	=75
0FF	vo-	0a	vo-	0a	vo-	0cc	vo-
1GG	-lu-	1g	-lu-	1b-	-lu-	1b-	-lu-
=76	=76	=76	=76	=76	=76	=76	=76
0FF	-it	0a	-it	0cc	-it	0a	-it
1BB-	cle-	1f	cle-	1dd	cle-	1b-	cle-
=77	=77	=77	=77	=77	=77	=77	=77
0C	-men-	1f	-men-	0cc	-men-	0g	-men-
.	.	2e/	.	.	.	.	.
.	.	2d/	.	.	.	.	.
1C	-ti-	1e	-ti-	1cc	-ti-	1g	-ti-
=78	=78	=78	=78	=78	=78	=78	=78
0.FF	-a	0.f	-a	0.a	-a	0.f	-a
==	==	==	==	==	==	==	==
*-	*-	*-	*-	*-	*-	*-	*-
!!!GTL: Hymnbook L 1642(a)
!!!EFL: 20/34
!!!YEM: Creative Commons CC/BY/NC/SA 4.0
!!!ENC: Marcin Konik
!!!END: 2015-01-12 
!!!EED: Marcin Konik
!!!EEV: 
!!!ONB: Translated from MusicXML and edited by Marcin Konik
!!!CharacterEncoding: utf-8
!!!RDF**kern: i=editorial accidental
!!muse2ps: z14jc180F
!!title: @{OTL}, @{GTL}: @{pag}, ed. @{ENC}
